ru/_images/contact-support.svg

<svg width="237" height="36" viewBox="0 0 237 36" fill="none" xmlns="http://www.w3.org/2000/svg">
<path d="M0 8C0 3.58172 3.58172 0 8 0H229C233.418 0 237 3.58172 237 8V28C237 32.4183 233.418 36 229 36H8.00001C3.58173 36 0 32.4183 0 28V8Z" fill="#2C3C4F"/>
<path d="M23.5391 18.744H18.8351V23H17.1411V12.962H18.8351V17.288H23.5391V12.962H25.2471V23H23.5391V18.744ZM31.4134 21.726C31.3387 21.894 31.236 22.062 31.1054 22.23C30.984 22.398 30.83 22.552 30.6434 22.692C30.466 22.8227 30.2514 22.93 29.9994 23.014C29.7474 23.098 29.4534 23.14 29.1174 23.14C28.8 23.14 28.506 23.0933 28.2354 23C27.9647 22.916 27.7267 22.7853 27.5214 22.608C27.3254 22.4307 27.1667 22.2113 27.0454 21.95C26.9334 21.6793 26.8774 21.3713 26.8774 21.026C26.8774 20.2327 27.1714 19.64 27.7594 19.248C28.3474 18.8467 29.178 18.646 30.2514 18.646H31.3574V18.198C31.3574 17.722 31.236 17.3953 30.9934 17.218C30.7507 17.0313 30.3494 16.938 29.7894 16.938C29.3134 16.938 28.8654 17.008 28.4454 17.148C28.0347 17.2787 27.6707 17.4327 27.3534 17.61V16.252C27.6427 16.0933 28.0254 15.944 28.5014 15.804C28.9774 15.664 29.4954 15.594 30.0554 15.594C30.9887 15.594 31.7074 15.79 32.2114 16.182C32.7247 16.5647 32.9814 17.1807 32.9814 18.03V21.824C32.9814 21.908 32.9814 22.006 32.9814 22.118C32.9907 22.2207 32.9954 22.328 32.9954 22.44C33.0047 22.552 33.014 22.6593 33.0234 22.762C33.0327 22.8553 33.042 22.9347 33.0514 23H31.5534C31.5254 22.8693 31.4974 22.6873 31.4694 22.454C31.4507 22.2207 31.4367 22.0107 31.4274 21.824L31.4134 21.726ZM29.5654 21.88C29.9107 21.88 30.1954 21.81 30.4194 21.67C30.6527 21.5207 30.8394 21.3527 30.9794 21.166C31.1194 20.97 31.2174 20.7787 31.2734 20.592C31.3294 20.4053 31.3574 20.2747 31.3574 20.2V19.71H30.3494C29.7054 19.71 29.234 19.8127 28.9354 20.018C28.6367 20.214 28.4874 20.494 28.4874 20.858C28.4874 21.1753 28.576 21.4273 28.7534 21.614C28.94 21.7913 29.2107 21.88 29.5654 21.88ZM34.7332 15.734H40.9072V23H39.2832V17.05H36.3572V23H34.7332V15.734ZM44.3413 20.802L47.7013 15.734H49.2973V23H47.6873V17.96L44.3553 23H42.7313V15.734H44.3413V20.802ZM54.4718 23.14C53.8838 23.14 53.3565 23.056 52.8898 22.888C52.4232 22.7107 52.0265 22.4633 51.6998 22.146C51.3732 21.8193 51.1212 21.4227 50.9438 20.956C50.7665 20.4893 50.6778 19.9573 50.6778 19.36C50.6778 18.772 50.7665 18.2447 50.9438 17.778C51.1212 17.3113 51.3732 16.9193 51.6998 16.602C52.0265 16.2753 52.4278 16.028 52.9038 15.86C53.3798 15.6827 53.9118 15.594 54.4998 15.594C55.0038 15.594 55.4425 15.65 55.8158 15.762C56.1985 15.874 56.5018 16.014 56.7258 16.182V17.526C56.4365 17.3393 56.1192 17.1947 55.7738 17.092C55.4378 16.9893 55.0458 16.938 54.5978 16.938C53.0952 16.938 52.3438 17.7453 52.3438 19.36C52.3438 20.9747 53.0812 21.782 54.5558 21.782C55.0318 21.782 55.4378 21.7307 55.7738 21.628C56.1192 21.516 56.4365 21.376 56.7258 21.208V22.552C56.4832 22.7107 56.1798 22.8507 55.8158 22.972C55.4518 23.084 55.0038 23.14 54.4718 23.14ZM62.4075 21.726C62.3329 21.894 62.2302 22.062 62.0995 22.23C61.9782 22.398 61.8242 22.552 61.6375 22.692C61.4602 22.8227 61.2455 22.93 60.9935 23.014C60.7415 23.098 60.4475 23.14 60.1115 23.14C59.7942 23.14 59.5002 23.0933 59.2295 23C58.9589 22.916 58.7209 22.7853 58.5155 22.608C58.3195 22.4307 58.1609 22.2113 58.0395 21.95C57.9275 21.6793 57.8715 21.3713 57.8715 21.026C57.8715 20.2327 58.1655 19.64 58.7535 19.248C59.3415 18.8467 60.1722 18.646 61.2455 18.646H62.3515V18.198C62.3515 17.722 62.2302 17.3953 61.9875 17.218C61.7449 17.0313 61.3435 16.938 60.7835 16.938C60.3075 16.938 59.8595 17.008 59.4395 17.148C59.0289 17.2787 58.6649 17.4327 58.3475 17.61V16.252C58.6369 16.0933 59.0195 15.944 59.4955 15.804C59.9715 15.664 60.4895 15.594 61.0495 15.594C61.9829 15.594 62.7015 15.79 63.2055 16.182C63.7189 16.5647 63.9755 17.1807 63.9755 18.03V21.824C63.9755 21.908 63.9755 22.006 63.9755 22.118C63.9849 22.2207 63.9895 22.328 63.9895 22.44C63.9989 22.552 64.0082 22.6593 64.0175 22.762C64.0269 22.8553 64.0362 22.9347 64.0455 23H62.5475C62.5195 22.8693 62.4915 22.6873 62.4635 22.454C62.4449 22.2207 62.4309 22.0107 62.4215 21.824L62.4075 21.726ZM60.5595 21.88C60.9049 21.88 61.1895 21.81 61.4135 21.67C61.6469 21.5207 61.8335 21.3527 61.9735 21.166C62.1135 20.97 62.2115 20.7787 62.2675 20.592C62.3235 20.4053 62.3515 20.2747 62.3515 20.2V19.71H61.3435C60.6995 19.71 60.2282 19.8127 59.9295 20.018C59.6309 20.214 59.4815 20.494 59.4815 20.858C59.4815 21.1753 59.5702 21.4273 59.7475 21.614C59.9342 21.7913 60.2049 21.88 60.5595 21.88ZM68.8797 17.05V23H67.2557V17.05H65.0577V15.734H71.1197V17.05H68.8797ZM78.2102 20.494C78.2102 20.914 78.1309 21.2827 77.9722 21.6C77.8229 21.9173 77.6129 22.1787 77.3422 22.384C77.0716 22.5893 76.7496 22.7433 76.3762 22.846C76.0029 22.9487 75.5922 23 75.1442 23H72.3442V15.734H73.9682V18.086H75.1862C76.1382 18.086 76.8802 18.282 77.4122 18.674C77.9442 19.066 78.2102 19.6727 78.2102 20.494ZM73.9682 19.374V21.726H75.0182C75.4662 21.726 75.8302 21.6373 76.1102 21.46C76.3902 21.2733 76.5302 20.97 76.5302 20.55C76.5302 20.13 76.4042 19.8313 76.1522 19.654C75.9002 19.4673 75.5362 19.374 75.0602 19.374H73.9682ZM82.6121 15.734H85.5801C87.4188 15.734 88.3381 16.3407 88.3381 17.554C88.3381 18.002 88.2121 18.3567 87.9601 18.618C87.7175 18.87 87.3581 19.0613 86.8821 19.192C87.4701 19.276 87.9088 19.458 88.1981 19.738C88.4875 20.018 88.6321 20.4147 88.6321 20.928C88.6321 21.2827 88.5575 21.5907 88.4081 21.852C88.2588 22.1133 88.0488 22.328 87.7781 22.496C87.5168 22.664 87.1948 22.79 86.8121 22.874C86.4295 22.958 86.0095 23 85.5521 23H82.6121V15.734ZM84.2221 16.98V18.702H85.4121C85.8041 18.702 86.1215 18.632 86.3641 18.492C86.6068 18.3427 86.7281 18.128 86.7281 17.848C86.7281 17.5213 86.6208 17.2973 86.4061 17.176C86.2008 17.0453 85.8975 16.98 85.4961 16.98H84.2221ZM84.2221 19.85V21.754H85.4681C85.9161 21.754 86.2755 21.6887 86.5461 21.558C86.8261 21.4273 86.9661 21.1847 86.9661 20.83C86.9661 20.4753 86.8401 20.2233 86.5881 20.074C86.3455 19.9247 85.9581 19.85 85.4261 19.85H84.2221ZM96.6496 23.14C96.0616 23.14 95.5342 23.056 95.0676 22.888C94.6009 22.7107 94.2042 22.4633 93.8776 22.146C93.5509 21.8193 93.2989 21.4227 93.1216 20.956C92.9442 20.4893 92.8556 19.9573 92.8556 19.36C92.8556 18.772 92.9442 18.2447 93.1216 17.778C93.2989 17.3113 93.5509 16.9193 93.8776 16.602C94.2042 16.2753 94.6056 16.028 95.0816 15.86C95.5576 15.6827 96.0896 15.594 96.6776 15.594C97.1816 15.594 97.6202 15.65 97.9936 15.762C98.3762 15.874 98.6796 16.014 98.9036 16.182V17.526C98.6142 17.3393 98.2969 17.1947 97.9516 17.092C97.6156 16.9893 97.2236 16.938 96.7756 16.938C95.2729 16.938 94.5216 17.7453 94.5216 19.36C94.5216 20.9747 95.2589 21.782 96.7336 21.782C97.2096 21.782 97.6156 21.7307 97.9516 21.628C98.2969 21.516 98.6142 21.376 98.9036 21.208V22.552C98.6609 22.7107 98.3576 22.8507 97.9936 22.972C97.6296 23.084 97.1816 23.14 96.6496 23.14ZM101.029 20.424C101.132 19.948 101.197 19.332 101.225 18.576C101.263 17.8107 101.281 16.8633 101.281 15.734H106.503V23H104.879V17.05H102.765C102.747 18.0113 102.709 18.8607 102.653 19.598C102.597 20.3353 102.481 20.9607 102.303 21.474C102.135 21.978 101.888 22.3653 101.561 22.636C101.244 22.9067 100.815 23.042 100.273 23.042C100.199 23.042 100.124 23.0373 100.049 23.028C99.9839 23.028 99.9139 23.0233 99.8393 23.014V21.502C99.9326 21.5207 100.003 21.53 100.049 21.53C100.301 21.53 100.502 21.4413 100.651 21.264C100.81 21.0773 100.936 20.7973 101.029 20.424ZM112.263 22.916C112.104 23.3547 111.931 23.742 111.745 24.078C111.567 24.414 111.357 24.694 111.115 24.918C110.881 25.1513 110.606 25.324 110.289 25.436C109.981 25.5573 109.617 25.618 109.197 25.618C108.739 25.618 108.347 25.5433 108.021 25.394V23.938C108.151 24.0407 108.315 24.12 108.511 24.176C108.707 24.232 108.921 24.26 109.155 24.26C109.472 24.26 109.733 24.19 109.939 24.05C110.144 23.9193 110.331 23.7187 110.499 23.448L107.573 15.734H109.323L111.353 21.376L113.369 15.734H114.881L112.263 22.916ZM121.347 15.734V18.73H121.949L124.035 15.734H125.701L123.223 19.22L125.841 23H123.937L121.907 20.046H121.347V23H119.723V20.046H119.163L117.091 23H115.243L117.861 19.29L115.369 15.734H117.091L119.135 18.73H119.723V15.734H121.347ZM133.604 19.388C133.604 19.9947 133.511 20.5313 133.324 20.998C133.137 21.4647 132.881 21.8567 132.554 22.174C132.237 22.4913 131.854 22.734 131.406 22.902C130.967 23.0607 130.491 23.14 129.978 23.14C129.455 23.14 128.975 23.0513 128.536 22.874C128.097 22.6967 127.719 22.4307 127.402 22.076C127.085 21.712 126.833 21.264 126.646 20.732C126.469 20.1907 126.38 19.556 126.38 18.828C126.38 18.1653 126.408 17.5587 126.464 17.008C126.52 16.4573 126.613 15.9627 126.744 15.524C126.884 15.0853 127.071 14.7027 127.304 14.376C127.537 14.04 127.836 13.7507 128.2 13.508C128.629 13.2373 129.087 13.0647 129.572 12.99C130.067 12.9153 130.571 12.8687 131.084 12.85C131.653 12.822 132.083 12.7753 132.372 12.71C132.661 12.6353 132.909 12.542 133.114 12.43V13.872C133.011 13.9373 132.904 13.9933 132.792 14.04C132.68 14.0773 132.549 14.11 132.4 14.138C132.251 14.166 132.078 14.194 131.882 14.222C131.686 14.2407 131.457 14.2593 131.196 14.278C130.72 14.3247 130.286 14.3713 129.894 14.418C129.502 14.4553 129.152 14.572 128.844 14.768C128.489 15.0107 128.228 15.3467 128.06 15.776C127.892 16.2053 127.78 16.728 127.724 17.344C128.191 16.2893 129.091 15.762 130.426 15.762C130.855 15.762 131.261 15.846 131.644 16.014C132.036 16.1727 132.377 16.406 132.666 16.714C132.955 17.022 133.184 17.4 133.352 17.848C133.52 18.296 133.604 18.8093 133.604 19.388ZM129.978 21.782C130.547 21.782 131.014 21.5907 131.378 21.208C131.751 20.816 131.938 20.2187 131.938 19.416C131.938 18.6133 131.751 18.0207 131.378 17.638C131.014 17.246 130.547 17.05 129.978 17.05C129.418 17.05 128.956 17.2413 128.592 17.624C128.237 18.0067 128.06 18.5947 128.06 19.388C128.06 20.2093 128.242 20.816 128.606 21.208C128.97 21.5907 129.427 21.782 129.978 21.782ZM138.718 22.916C138.559 23.3547 138.386 23.742 138.2 24.078C138.022 24.414 137.812 24.694 137.57 24.918C137.336 25.1513 137.061 25.324 136.744 25.436C136.436 25.5573 136.072 25.618 135.652 25.618C135.194 25.618 134.802 25.5433 134.476 25.394V23.938C134.606 24.0407 134.77 24.12 134.966 24.176C135.162 24.232 135.376 24.26 135.61 24.26C135.927 24.26 136.188 24.19 136.394 24.05C136.599 23.9193 136.786 23.7187 136.954 23.448L134.028 15.734H135.778L137.808 21.376L139.824 15.734H141.336L138.718 22.916ZM145.516 15.734H151.69V23H150.066V17.05H147.14V23H145.516V15.734ZM156.664 23.14C156.151 23.14 155.675 23.056 155.236 22.888C154.798 22.72 154.415 22.4773 154.088 22.16C153.771 21.8333 153.519 21.4367 153.332 20.97C153.155 20.5033 153.066 19.9667 153.066 19.36C153.066 18.7533 153.155 18.2167 153.332 17.75C153.519 17.2833 153.771 16.8913 154.088 16.574C154.415 16.2473 154.798 16.0047 155.236 15.846C155.675 15.678 156.151 15.594 156.664 15.594C157.178 15.594 157.654 15.678 158.092 15.846C158.531 16.0047 158.914 16.2473 159.24 16.574C159.567 16.8913 159.824 17.2833 160.01 17.75C160.197 18.2167 160.29 18.7533 160.29 19.36C160.29 19.9667 160.197 20.5033 160.01 20.97C159.824 21.4367 159.567 21.8333 159.24 22.16C158.914 22.4773 158.531 22.72 158.092 22.888C157.654 23.056 157.178 23.14 156.664 23.14ZM156.664 21.782C157.224 21.782 157.686 21.586 158.05 21.194C158.424 20.802 158.61 20.1907 158.61 19.36C158.61 18.5387 158.424 17.932 158.05 17.54C157.686 17.1387 157.224 16.938 156.664 16.938C156.114 16.938 155.652 17.1387 155.278 17.54C154.914 17.932 154.732 18.5387 154.732 19.36C154.732 20.1907 154.914 20.802 155.278 21.194C155.652 21.586 156.114 21.782 156.664 21.782ZM161.358 21.684C161.572 21.4973 161.74 21.2407 161.862 20.914C161.992 20.5873 162.095 20.1813 162.17 19.696C162.244 19.2013 162.3 18.6273 162.338 17.974C162.375 17.3207 162.408 16.574 162.436 15.734H167.756V21.684H168.848V25.072H167.434L167.308 23H162.296L162.17 25.072H160.742V21.684H161.358ZM166.132 21.684V17.05H163.836C163.789 18.198 163.71 19.15 163.598 19.906C163.495 20.6527 163.322 21.2453 163.08 21.684H166.132ZM170.299 21.684C170.514 21.4973 170.682 21.2407 170.803 20.914C170.934 20.5873 171.036 20.1813 171.111 19.696C171.186 19.2013 171.242 18.6273 171.279 17.974C171.316 17.3207 171.349 16.574 171.377 15.734H176.697V21.684H177.789V25.072H176.375L176.249 23H171.237L171.111 25.072H169.683V21.684H170.299ZM175.073 21.684V17.05H172.777C172.73 18.198 172.651 19.15 172.539 19.906C172.436 20.6527 172.264 21.2453 172.021 21.684H175.073ZM184.924 22.468C184.822 22.5333 184.696 22.608 184.546 22.692C184.397 22.7667 184.22 22.8367 184.014 22.902C183.809 22.9673 183.571 23.0233 183.3 23.07C183.03 23.1167 182.722 23.14 182.376 23.14C181.042 23.14 180.043 22.8087 179.38 22.146C178.727 21.4833 178.4 20.5547 178.4 19.36C178.4 18.772 178.489 18.2447 178.666 17.778C178.844 17.3113 179.091 16.9193 179.408 16.602C179.726 16.2753 180.104 16.028 180.542 15.86C180.981 15.6827 181.462 15.594 181.984 15.594C182.526 15.594 183.011 15.6827 183.44 15.86C183.879 16.0373 184.238 16.3033 184.518 16.658C184.798 17.0127 184.99 17.4513 185.092 17.974C185.204 18.4967 185.209 19.108 185.106 19.808H180.08C180.146 20.4707 180.365 20.97 180.738 21.306C181.112 21.6327 181.695 21.796 182.488 21.796C183.067 21.796 183.548 21.726 183.93 21.586C184.322 21.4367 184.654 21.2827 184.924 21.124V22.468ZM181.984 16.882C181.508 16.882 181.107 17.0267 180.78 17.316C180.454 17.6053 180.239 18.0347 180.136 18.604H183.552C183.571 18.016 183.44 17.582 183.16 17.302C182.88 17.022 182.488 16.882 181.984 16.882ZM190.618 23.14C190.067 23.14 189.591 23.0187 189.19 22.776C188.798 22.524 188.481 22.188 188.238 21.768V25.478H186.614V15.734H188.098L188.21 17.022C188.453 16.5833 188.775 16.238 189.176 15.986C189.577 15.7247 190.067 15.594 190.646 15.594C191.075 15.594 191.481 15.6733 191.864 15.832C192.256 15.9813 192.597 16.2147 192.886 16.532C193.175 16.84 193.404 17.232 193.572 17.708C193.749 18.1747 193.838 18.7253 193.838 19.36C193.838 20.004 193.749 20.564 193.572 21.04C193.404 21.5067 193.171 21.8987 192.872 22.216C192.583 22.524 192.242 22.7573 191.85 22.916C191.458 23.0653 191.047 23.14 190.618 23.14ZM190.226 21.782C190.805 21.782 191.271 21.586 191.626 21.194C191.99 20.7927 192.172 20.1813 192.172 19.36C192.172 18.548 191.99 17.9413 191.626 17.54C191.271 17.1387 190.809 16.938 190.24 16.938C189.951 16.938 189.685 16.9893 189.442 17.092C189.199 17.1853 188.985 17.3347 188.798 17.54C188.621 17.7453 188.481 18.002 188.378 18.31C188.275 18.6087 188.224 18.9587 188.224 19.36C188.224 19.7707 188.275 20.13 188.378 20.438C188.481 20.7367 188.621 20.9887 188.798 21.194C188.975 21.39 189.185 21.5393 189.428 21.642C189.68 21.7353 189.946 21.782 190.226 21.782ZM200.343 15.734V18.73H200.945L203.031 15.734H204.697L202.219 19.22L204.837 23H202.933L200.903 20.046H200.343V23H198.719V20.046H198.159L196.087 23H194.239L196.857 19.29L194.365 15.734H196.087L198.131 18.73H198.719V15.734H200.343ZM208.173 20.046H207.543V23H205.919V15.734H207.543V18.73H208.229L210.539 15.734H212.247L209.503 19.234L212.359 23H210.441L208.173 20.046ZM215.048 20.802L218.408 15.734H220.004V23H218.394V17.96L215.062 23H213.438V15.734H215.048V20.802Z" fill="white"/>
</svg>

<svg xmlns="http://www.w3.org/2000/svg" width="237" height="36" fill="none"><path fill="#2C3C4F" d="M0 8a8 8 0 0 1 8-8h221a8 8 0 0 1 8 8v20a8 8 0 0 1-8 8H8a8 8 0 0 1-8-8V8Z"/><path fill="#fff" d="M23.54 18.744h-4.705V23h-1.694V12.962h1.694v4.326h4.704v-4.326h1.708V23H23.54v-4.256Zm7.873 2.982a2.444 2.444 0 0 1-.308.504 2.17 2.17 0 0 1-.462.462c-.177.13-.392.238-.644.322a2.792 2.792 0 0 1-.882.126c-.317 0-.611-.047-.882-.14a1.974 1.974 0 0 1-.714-.392 2.023 2.023 0 0 1-.476-.658 2.399 2.399 0 0 1-.168-.924c0-.793.294-1.386.882-1.778.588-.401 1.419-.602 2.492-.602h1.106v-.448c0-.476-.121-.803-.364-.98-.242-.187-.644-.28-1.204-.28-.476 0-.924.07-1.344.21-.41.13-.774.285-1.092.462v-1.358c.29-.159.672-.308 1.148-.448.476-.14.994-.21 1.554-.21.934 0 1.652.196 2.156.588.514.383.77.999.77 1.848v4.088c.01.103.014.21.014.322l.028.322c.01.093.019.173.028.238h-1.498a6.4 6.4 0 0 1-.084-.546 21.097 21.097 0 0 1-.042-.63l-.014-.098Zm-1.848.154c.346 0 .63-.07.854-.21.234-.15.42-.317.56-.504.14-.196.238-.387.294-.574a1.63 1.63 0 0 0 .084-.392v-.49H30.35c-.644 0-1.115.103-1.414.308a.946.946 0 0 0-.448.84c0 .317.089.57.266.756.187.177.458.266.812.266Zm5.168-6.146h6.174V23h-1.624v-5.95h-2.926V23h-1.624v-7.266Zm9.608 5.068 3.36-5.068h1.596V23h-1.61v-5.04L44.355 23h-1.624v-7.266h1.61v5.068Zm10.13 2.338a4.65 4.65 0 0 1-1.581-.252 3.434 3.434 0 0 1-1.19-.742 3.332 3.332 0 0 1-.756-1.19c-.178-.467-.266-.999-.266-1.596 0-.588.089-1.115.266-1.582a3.162 3.162 0 0 1 1.96-1.918 4.544 4.544 0 0 1 1.596-.266 4.6 4.6 0 0 1 1.316.168c.383.112.686.252.91.42v1.344a3.678 3.678 0 0 0-.952-.434 4.036 4.036 0 0 0-1.176-.154c-1.503 0-2.254.807-2.254 2.422 0 1.615.737 2.422 2.212 2.422.476 0 .882-.051 1.218-.154.345-.112.663-.252.952-.42v1.344a3.943 3.943 0 0 1-.91.42c-.364.112-.812.168-1.344.168Zm7.937-1.414a2.435 2.435 0 0 1-.309.504 2.165 2.165 0 0 1-.461.462c-.178.13-.392.238-.645.322a2.792 2.792 0 0 1-.882.126 2.69 2.69 0 0 1-.881-.14 1.975 1.975 0 0 1-.714-.392 2.024 2.024 0 0 1-.477-.658 2.399 2.399 0 0 1-.168-.924c0-.793.294-1.386.883-1.778.588-.401 1.418-.602 2.492-.602h1.105v-.448c0-.476-.12-.803-.364-.98-.242-.187-.644-.28-1.204-.28-.476 0-.924.07-1.343.21-.411.13-.775.285-1.093.462v-1.358c.29-.159.672-.308 1.148-.448.477-.14.995-.21 1.555-.21.933 0 1.652.196 2.156.588.513.383.77.999.77 1.848v4.088c.009.103.014.21.014.322l.027.322c.01.093.02.173.029.238h-1.499a6.4 6.4 0 0 1-.083-.546 21.79 21.79 0 0 1-.042-.63l-.014-.098Zm-1.849.154c.346 0 .63-.07.855-.21.233-.15.42-.317.56-.504.14-.196.238-.387.294-.574a1.63 1.63 0 0 0 .084-.392v-.49h-1.008c-.645 0-1.116.103-1.415.308a.946.946 0 0 0-.448.84c0 .317.09.57.267.756.186.177.457.266.812.266Zm8.32-4.83V23h-1.623v-5.95h-2.198v-1.316h6.062v1.316h-2.24Zm9.331 3.444c0 .42-.08.789-.238 1.106-.15.317-.36.579-.63.784-.27.205-.592.36-.966.462a4.637 4.637 0 0 1-1.232.154h-2.8v-7.266h1.624v2.352h1.218c.952 0 1.694.196 2.226.588.532.392.798.999.798 1.82Zm-4.242-1.12v2.352h1.05c.448 0 .812-.089 1.092-.266.28-.187.42-.49.42-.91 0-.42-.126-.719-.378-.896-.252-.187-.616-.28-1.092-.28h-1.092Zm8.644-3.64h2.968c1.839 0 2.758.607 2.758 1.82 0 .448-.126.803-.378 1.064-.242.252-.602.443-1.078.574.588.084 1.027.266 1.316.546.29.28.434.677.434 1.19 0 .355-.075.663-.224.924-.15.261-.36.476-.63.644a2.942 2.942 0 0 1-.966.378 5.88 5.88 0 0 1-1.26.126h-2.94v-7.266Zm1.61 1.246v1.722h1.19c.392 0 .71-.07.952-.21a.714.714 0 0 0 .364-.644c0-.327-.107-.55-.322-.672-.205-.13-.509-.196-.91-.196h-1.274Zm0 2.87v1.904h1.246c.448 0 .807-.065 1.078-.196.28-.13.42-.373.42-.728s-.126-.607-.378-.756c-.242-.15-.63-.224-1.162-.224h-1.204Zm12.428 3.29a4.65 4.65 0 0 1-1.582-.252 3.432 3.432 0 0 1-1.19-.742 3.33 3.33 0 0 1-.756-1.19c-.178-.467-.266-.999-.266-1.596 0-.588.088-1.115.266-1.582a3.161 3.161 0 0 1 1.96-1.918 4.544 4.544 0 0 1 1.596-.266c.504 0 .942.056 1.316.168.382.112.686.252.91.42v1.344a3.681 3.681 0 0 0-.952-.434 4.036 4.036 0 0 0-1.176-.154c-1.503 0-2.254.807-2.254 2.422 0 1.615.737 2.422 2.212 2.422.476 0 .882-.051 1.218-.154.345-.112.662-.252.952-.42v1.344a3.945 3.945 0 0 1-.91.42c-.364.112-.812.168-1.344.168Zm4.379-2.716c.103-.476.168-1.092.196-1.848.038-.765.056-1.713.056-2.842h5.222V23h-1.624v-5.95h-2.114c-.018.961-.056 1.81-.112 2.548-.056.737-.172 1.363-.35 1.876-.168.504-.415.891-.742 1.162-.317.27-.746.406-1.288.406-.074 0-.149-.005-.224-.014-.065 0-.135-.005-.21-.014v-1.512c.094.019.164.028.21.028a.746.746 0 0 0 .602-.266c.159-.187.285-.467.378-.84Zm11.234 2.492a8.11 8.11 0 0 1-.518 1.162 3.122 3.122 0 0 1-.63.84 2.185 2.185 0 0 1-.826.518 2.974 2.974 0 0 1-1.092.182c-.458 0-.85-.075-1.176-.224v-1.456c.13.103.294.182.49.238.196.056.41.084.644.084.317 0 .578-.07.784-.21.205-.13.392-.331.56-.602l-2.926-7.714h1.75l2.03 5.642 2.016-5.642h1.512l-2.618 7.182Zm9.084-7.182v2.996h.602l2.086-2.996h1.666l-2.478 3.486 2.618 3.78h-1.904l-2.03-2.954h-.56V23h-1.624v-2.954h-.56L117.091 23h-1.848l2.618-3.71-2.492-3.556h1.722l2.044 2.996h.588v-2.996h1.624Zm12.257 3.654c0 .607-.093 1.143-.28 1.61a3.345 3.345 0 0 1-.77 1.176c-.317.317-.7.56-1.148.728a4.17 4.17 0 0 1-1.428.238 3.813 3.813 0 0 1-1.442-.266 3.017 3.017 0 0 1-1.134-.798 4.081 4.081 0 0 1-.756-1.344c-.177-.541-.266-1.176-.266-1.904 0-.663.028-1.27.084-1.82.056-.55.149-1.045.28-1.484.14-.439.327-.821.56-1.148.233-.336.532-.625.896-.868.429-.27.887-.443 1.372-.518.495-.075.999-.121 1.512-.14.569-.028.999-.075 1.288-.14.289-.075.537-.168.742-.28v1.442c-.103.065-.21.121-.322.168-.112.037-.243.07-.392.098-.149.028-.322.056-.518.084-.196.019-.425.037-.686.056-.476.047-.91.093-1.302.14a2.338 2.338 0 0 0-1.05.35 2.122 2.122 0 0 0-.784 1.008c-.168.43-.28.952-.336 1.568.467-1.055 1.367-1.582 2.702-1.582.429 0 .835.084 1.218.252.392.159.733.392 1.022.7.289.308.518.686.686 1.134.168.448.252.961.252 1.54Zm-3.626 2.394c.569 0 1.036-.191 1.4-.574.373-.392.56-.99.56-1.792 0-.803-.187-1.395-.56-1.778-.364-.392-.831-.588-1.4-.588-.56 0-1.022.191-1.386.574-.355.383-.532.97-.532 1.764 0 .821.182 1.428.546 1.82.364.383.821.574 1.372.574Zm8.74 1.134a8.11 8.11 0 0 1-.518 1.162 3.122 3.122 0 0 1-.63.84 2.185 2.185 0 0 1-.826.518 2.974 2.974 0 0 1-1.092.182c-.458 0-.85-.075-1.176-.224v-1.456c.13.103.294.182.49.238.196.056.41.084.644.084.317 0 .578-.07.784-.21.205-.13.392-.331.56-.602l-2.926-7.714h1.75l2.03 5.642 2.016-5.642h1.512l-2.618 7.182Zm6.798-7.182h6.174V23h-1.624v-5.95h-2.926V23h-1.624v-7.266Zm11.148 7.406c-.513 0-.989-.084-1.428-.252a3.355 3.355 0 0 1-1.148-.728 3.617 3.617 0 0 1-.756-1.19c-.177-.467-.266-1.003-.266-1.61 0-.607.089-1.143.266-1.61a3.46 3.46 0 0 1 .756-1.176c.327-.327.71-.57 1.148-.728a3.962 3.962 0 0 1 1.428-.252c.514 0 .99.084 1.428.252.439.159.822.401 1.148.728.327.317.584.71.77 1.176.187.467.28 1.003.28 1.61 0 .607-.093 1.143-.28 1.61a3.479 3.479 0 0 1-.77 1.19c-.326.317-.709.56-1.148.728a3.955 3.955 0 0 1-1.428.252Zm0-1.358c.56 0 1.022-.196 1.386-.588.374-.392.56-1.003.56-1.834 0-.821-.186-1.428-.56-1.82-.364-.401-.826-.602-1.386-.602-.55 0-1.012.2-1.386.602-.364.392-.546.999-.546 1.82 0 .83.182 1.442.546 1.834a1.84 1.84 0 0 0 1.386.588Zm4.694-.098c.214-.187.382-.443.504-.77.13-.327.233-.733.308-1.218a19.4 19.4 0 0 0 .168-1.722c.037-.653.07-1.4.098-2.24h5.32v5.95h1.092v3.388h-1.414L167.308 23h-5.012l-.126 2.072h-1.428v-3.388h.616Zm4.774 0V17.05h-2.296c-.047 1.148-.126 2.1-.238 2.856-.103.747-.276 1.34-.518 1.778h3.052Zm4.167 0c.215-.187.383-.443.504-.77.131-.327.233-.733.308-1.218.075-.495.131-1.069.168-1.722.037-.653.07-1.4.098-2.24h5.32v5.95h1.092v3.388h-1.414L176.249 23h-5.012l-.126 2.072h-1.428v-3.388h.616Zm4.774 0V17.05h-2.296c-.047 1.148-.126 2.1-.238 2.856-.103.747-.275 1.34-.518 1.778h3.052Zm9.851.784a7.62 7.62 0 0 1-.378.224 3.665 3.665 0 0 1-.532.21 5.384 5.384 0 0 1-1.638.238c-1.334 0-2.333-.331-2.996-.994-.653-.663-.98-1.591-.98-2.786 0-.588.089-1.115.266-1.582.178-.467.425-.859.742-1.176a3.121 3.121 0 0 1 1.134-.742c.439-.177.92-.266 1.442-.266a3.78 3.78 0 0 1 1.456.266c.439.177.798.443 1.078.798.28.355.472.793.574 1.316.112.523.117 1.134.014 1.834h-5.026c.066.663.285 1.162.658 1.498.374.327.957.49 1.75.49.579 0 1.06-.07 1.442-.21.392-.15.724-.303.994-.462v1.344Zm-2.94-5.586c-.476 0-.877.145-1.204.434-.326.29-.541.719-.644 1.288h3.416c.019-.588-.112-1.022-.392-1.302s-.672-.42-1.176-.42Zm8.634 6.258c-.551 0-1.027-.121-1.428-.364a2.906 2.906 0 0 1-.952-1.008v3.71h-1.624v-9.744h1.484l.112 1.288c.243-.439.565-.784.966-1.036.401-.261.891-.392 1.47-.392.429 0 .835.08 1.218.238.392.15.733.383 1.022.7.289.308.518.7.686 1.176.177.467.266 1.017.266 1.652 0 .644-.089 1.204-.266 1.68a3.335 3.335 0 0 1-.7 1.176c-.289.308-.63.541-1.022.7-.392.15-.803.224-1.232.224Zm-.392-1.358c.579 0 1.045-.196 1.4-.588.364-.401.546-1.013.546-1.834 0-.812-.182-1.419-.546-1.82-.355-.401-.817-.602-1.386-.602a2.03 2.03 0 0 0-.798.154 1.678 1.678 0 0 0-.644.448 2.263 2.263 0 0 0-.42.77 3.224 3.224 0 0 0-.154 1.05c0 .41.051.77.154 1.078.103.299.243.55.42.756.177.196.387.345.63.448.252.093.518.14.798.14Zm10.117-6.048v2.996h.602l2.086-2.996h1.666l-2.478 3.486 2.618 3.78h-1.904l-2.03-2.954h-.56V23h-1.624v-2.954h-.56L196.087 23h-1.848l2.618-3.71-2.492-3.556h1.722l2.044 2.996h.588v-2.996h1.624Zm7.83 4.312h-.63V23h-1.624v-7.266h1.624v2.996h.686l2.31-2.996h1.708l-2.744 3.5L212.359 23h-1.918l-2.268-2.954Zm6.875.756 3.36-5.068h1.596V23h-1.61v-5.04L215.062 23h-1.624v-7.266h1.61v5.068Z"/></svg>
